X:3633
T:Culcrevie
S:Charlie Menzies
R:Jig
O:Scotland
O:Ireland
M:6/8
K:Am
A|\
A>BA AGE | c2 c2d | efe edc | g3 e2a |\
gec cde | dBG GAB | c2A BGE | cAA A2:|
|: e |\
aba age | gag geg | aba age | g3 e2a |\
gec cde | dBG GAB | c2A BGE | cAA A2:|


